packages/vibrant-icons/assets/icons/ChevronRightCircle/Thin.svg

<svg width="24" height="24" viewBox="0 0 24 24" fill="none" xmlns="http://www.w3.org/2000/svg">
<path d="M10.3111 17.6489C10.3892 17.727 10.5158 17.727 10.5939 17.6489L16.1 12.1407C16.178 12.0626 16.178 11.936 16.1 11.8579L10.5941 6.35029C10.516 6.27216 10.3893 6.27215 10.3112 6.35027L9.39153 7.26993C9.31344 7.34802 9.31342 7.47464 9.3915 7.55275L13.8368 11.9998L9.39138 16.4464C9.3133 16.5245 9.3133 16.6511 9.3914 16.7292L10.3111 17.6489Z" fill="#0C0C0C"/>
<path fill-rule="evenodd" clip-rule="evenodd" d="M22.8499 11.9999C22.8499 6.0074 17.9924 1.1499 11.9999 1.1499C6.0074 1.1499 1.1499 6.0074 1.1499 11.9999C1.1499 17.9924 6.0074 22.8499 11.9999 22.8499C17.9924 22.8499 22.8499 17.9924 22.8499 11.9999ZM2.8499 11.9999C2.8499 6.9544 6.9544 2.8499 11.9999 2.8499C17.0454 2.8499 21.1499 6.9544 21.1499 11.9999C21.1499 17.0454 17.0454 21.1499 11.9999 21.1499C6.9544 21.1499 2.8499 17.0454 2.8499 11.9999Z" fill="#0C0C0C"/>
</svg>

<svg xmlns="http://www.w3.org/2000/svg" width="24" height="24" fill="none"><path fill="#0C0C0C" d="M10.311 17.649a.2.2 0 0 0 .283 0L16.1 12.14a.2.2 0 0 0 0-.283L10.594 6.35a.2.2 0 0 0-.283 0l-.92.92a.2.2 0 0 0 0 .283L13.838 12 9.39 16.446a.2.2 0 0 0 0 .283z"/><path fill="#0C0C0C" fill-rule="evenodd" d="M22.85 12c0-5.993-4.858-10.85-10.85-10.85C6.007 1.15 1.15 6.007 1.15 12S6.007 22.85 12 22.85 22.85 17.992 22.85 12m-20 0c0-5.046 4.104-9.15 9.15-9.15 5.045 0 9.15 4.104 9.15 9.15 0 5.045-4.105 9.15-9.15 9.15-5.046 0-9.15-4.105-9.15-9.15" clip-rule="evenodd"/></svg>
